X:26
T:The Outlandish Knight
T:Lady Isabel and the Elf Knight
C:Trad
B:Bronson
O:Sharp MSS., 75I/. Sung by Mrs. Pike, Somerton, January
O:5, I906; transmitted by Mrs. Snow.
N:No lyrics given in Bronson
M:6/8
L:1/8
K:Gmix % inflected 7th
d | dcA G2 d | cBA G2 B/c/ |
dfe edc | d3-d2 B | dcd g^fg | cBc B Bc |
dfe dcA | G3 B2 c | dfe dcA | G3-G2 |]
